X:1
T:Title
%%score { ( 1 3 4 ) | ( 2 5 ) }
L:1/8
M:4/4
K:D
V:1 treble nm="Grand Piano"
V:3 treble 
V:4 treble 
V:2 bass 
V:5 bass 
V:1
 z4 z2[Q:1/4=110] A2 | d3 A F2 E2 | D2 D2 D2 F2 | E2 [A,CA]2 [A,CE]2 [A,CA]2 |[M:3/4] [A,DF]6 | %5
[M:1/4] F2 |[M:4/4] B3 F D2 E2 | F2 F2 [DF]2 [DF]2 | ^G3 G c2 B2 |[M:3/4] [CA]6 |[M:1/4] [Gc]2 | %11
[M:4/4] d4 z4 | D2 C4 A2 | [CB]3 [CE] [EB]2 [EA]2 | F6 z2 | z2 z ^G B2 [Fd]2 | [Ec]2 [CA]4 [CA]2 | %17
 [Fc]2 [DFB]2 [CEA]2 [B,D^G]2 | z2[K:bass] G,2 E,2[K:treble] [Gc]2 | d3 A F2 D2 | D2 C4 A2 | %21
 [CB]3 [CE] [EB]2 [EA]2 | F6 z2 | [CE]2 F2 G2 A2 | B2 c2 [Fd]2 [Ge]2 | [Adf]3 [de] d2 [Ec]2 | %26
[M:3/4] [Fd]6 |] %27
V:2
 z4 z2 A,2 | D3 A, F,2 E,2 | [D,F,]2 [D,G,B,]2 [D,F,A,]2 [D,A,D]2 | [E,A,C]2 A,,2 E,2 A,,2 | %4
[M:3/4] D,6 |[M:1/4] F,2 |[M:4/4] B,3 F, D,2 E,2 | [F,B,D]2 [F,^A,C]2 [B,,B,]2 [B,,B,]2 | %8
 [E,B,D]3 [E,B,D] [E,A,E]2 [E,^G,D]2 |[M:3/4] [A,,A,]6 |[M:1/4] [A,,A,]2 | %11
[M:4/4] [D,A,]2 [D,A,]2 [D,A,D]2 [D,F,A,]2 | [E,G,A,]2 [E,G,A,]4 [E,G,C]2 | %13
 [A,,G,]3 [A,,G,] [C,A,]2 [C,A,]2 | A,2 z2 z4 | [E,^G,D]2 [E,G,]2 [E,G,D]2 [E,G,]2 | %16
 [A,,A,]2 [A,,A,]4 [A,,A,]2 | [D,A,]2 D,2 E,2 E,2 | z2 G,,2 E,,2 [A,,A,]2 | %19
 [D,A,]2 [D,A,]2 [D,A,D]2 [D,F,A,]2 | [E,G,A,]2 [E,G,A,]4 [E,G,C]2 | %21
 [A,,G,]3 [A,,G,] [C,A,]2 [C,A,]2 | A,2 z2 z4 | [A,,A,]2 [D,A,D]2 [E,A,C]2 [F,A,D]2 | %24
 [G,D]2 [F,^A,E]2 [B,,B,]2 [E,B,]2 | [D,D]3[K:treble] [G,B,G] [A,F]2[K:bass] [A,,A,]2 | %26
[M:3/4] [D,A,]6 |] %27
V:3
 x8 | x8 | x8 | x8 |[M:3/4] x6 |[M:1/4] x2 |[M:4/4] x8 | x8 | x8 |[M:3/4] x6 |[M:1/4] x2 | %11
[M:4/4] F2 z A F2 D2 | x8 | x8 | z2 B,2 A,2 F2 | E4 z4 | x8 | x8 | [A,CA]6[K:bass][K:treble] z2 | %19
 F2 F2 z4 | x8 | x8 | z2 B,2 A,2 F2 | x8 | x8 | x8 |[M:3/4] x6 |] %27
V:4
 x8 | x8 | x8 | x8 |[M:3/4] x6 |[M:1/4] x2 |[M:4/4] x8 | x8 | x8 |[M:3/4] x6 |[M:1/4] x2 | %11
[M:4/4] z2 F2 z4 | x8 | x8 | x8 | z2 D2 z4 | x8 | x8 | x2[K:bass] x4[K:treble] x2 | x8 | x8 | x8 | %22
 x8 | x8 | x8 | x8 |[M:3/4] x6 |] %27
V:5
 x8 | x8 | x8 | x8 |[M:3/4] x6 |[M:1/4] x2 |[M:4/4] x8 | x8 | x8 |[M:3/4] x6 |[M:1/4] x2 | %11
[M:4/4] x8 | x8 | x8 | [D,D]6 [D,A,D]2 | x8 | x8 | x8 | A,,6 z2 | x8 | x8 | x8 | [D,D]6 [D,A,D]2 | %23
 x8 | x8 | x3[K:treble] x3[K:bass] x2 |[M:3/4] x6 |] %27

